X:1
T:Holy Day (Parker), 88.6
T:Holy Day (Parker), 88.6
T:H. W. Parker
T:Public Domain Courtesy of the Cyber Hymnal™
C:H. W. Parker
Z:Public Domain
Z:Courtesy of the Cyber Hymnal™
%%score ( 1 2 ) ( 3 4 )
L:1/8
Q:1/4=110
M:4/4
K:F
V:1 treble 
V:2 treble 
V:3 bass 
V:4 bass 
V:1
!f! [Fc]2 | [Ec]2 [CE]2 [CF]2 [CG]2 | [FA]2 ([Ac][GB]) [FA]2 [EG]2 | A3 z A [FA]2 [Dd]2 | %4
 [Ac]2 [^G=B]2 !fermata!A2 [Ec]2 | [Ff]2 [FA]2 [FG]2 [EG]2 | F6 |] %7
V:2
 x2 | x8 | x8 | F2 G2 x5 | x4 A2 x2 | x8 | F6 |] %7
V:3
!f! [F,A,]2 | [G,B,]2 [G,B,]2 [A,C]2 [E,C]2 | [F,C]2 [B,,D]2 [C,C]2 [C,C]2 | %3
 [F,C]2 [E,^C]2 [D,D]2 [F,A,]2 x | [E,E]2 [E,D]2 !fermata![A,,C]2 ([A,C][G,B,]) | %5
 [F,A,]2 [A,,C]2 [B,,D]2 (CB,) | [F,A,]6 |] %7
V:4
 x2 | x8 | x8 | x9 | x8 | x6 E,2 | x6 |] %7

